!!!ONB: MCCC : IJB0065_07 : Extracted Monophonic Melody
!!!COM: Bach, Johann Sebastian
!!!OPR: Cello Suite No.3
!!!OMV: 7
!!!SCT: BWV 1009
!!!ODT: 1717///
**kern
*thru
*staff1
*IP1
*clefF4
*k[]
*C:
*M3/8
*>A
8G
=1
8c
16C
16D
16E
16F
=2
8G
8A
8B
=3
8c
8G
8e
=4
8c
8G
8e
=5
16d
16c
16d
16e
8f
=6
8B
8c
8E
=7
8GG
8D
8c
=8
8B
8G
8d
=9
8d
8F#
8G
=10
8E
16e
16d
16c
16B
=11
8c
16AA
16BB
16C
16D
=12
8E
8AA
8c
=13
8c
8E
8F#
=14
8D
16d
16c
16B
16A
=15
8B
16GG
16AA
16BB
16C
=16
8D
8GG
8B
=17
8B
8D
8E
=18
8C
16c
16B
16A
16G
=19
16F#
16A
16G
16F#
16E
16D
=20
4D
8D
=21
16C
16D
16BB
16D
16AA
16D
=22
16BB
16D
16AA
16D
16BB
16D
=23
16C
16D
16BB
16D
16AA
16D
=24
16BB
16D
16AA
16D
16GG
16D
=25
16F
16GG
16E
16GG
16D
16GG
=26
16E
16GG
16D
16GG
16E
16GG
=27
16F
16GG
16E
16GG
16D
16GG
=28
16E
16GG
16F#
16GG
16G
16GG
=29
16F#
16GG
16G
16GG
16A
16GG
=30
16G
16GG
16A
16GG
16B
16GG
=31
16A
16GG
16B
16GG
8c
=32
4D
8A
=33
16c
16d
8e-
8d
=34
8c
8B-
8A
=35
8f#
8g
8A
=36
8f#
8g
8A
=37
16c
16d
8e-
8d
=38
8c
8B-
8A
=39
8c#
8d
8A
=40
8c#
8d
8D
=41
16GG
16BB
8D
8E
=42
16AA
16C
8E
8F#
=43
16BB
16D
16G
16E
16F
16D
=44
16C
16E
16A
16B
16c
16A
=45
16d
16A
16F#
16E
16D
16C
=46
16BB
16D
16G
16BB
16AA
16F#
=47
8G
8D
8BB
=48
4GG
*>A
8G
=1
8c
16C
16D
16E
16F
=2
8G
8A
8B
=3
8c
8G
8e
=4
8c
8G
8e
=5
16d
16c
16d
16e
8f
=6
8B
8c
8E
=7
8GG
8D
8c
=8
8B
8G
8d
=9
8d
8F#
8G
=10
8E
16e
16d
16c
16B
=11
8c
16AA
16BB
16C
16D
=12
8E
8AA
8c
=13
8c
8E
8F#
=14
8D
16d
16c
16B
16A
=15
8B
16GG
16AA
16BB
16C
=16
8D
8GG
8B
=17
8B
8D
8E
=18
8C
16c
16B
16A
16G
=19
16F#
16A
16G
16F#
16E
16D
=20
4D
8D
=21
16C
16D
16BB
16D
16AA
16D
=22
16BB
16D
16AA
16D
16BB
16D
=23
16C
16D
16BB
16D
16AA
16D
=24
16BB
16D
16AA
16D
16GG
16D
=25
16F
16GG
16E
16GG
16D
16GG
=26
16E
16GG
16D
16GG
16E
16GG
=27
16F
16GG
16E
16GG
16D
16GG
=28
16E
16GG
16F#
16GG
16G
16GG
=29
16F#
16GG
16G
16GG
16A
16GG
=30
16G
16GG
16A
16GG
16B
16GG
=31
16A
16GG
16B
16GG
8c
=32
4D
8A
=33
16c
16d
8e-
8d
=34
8c
8B-
8A
=35
8f#
8g
8A
=36
8f#
8g
8A
=37
16c
16d
8e-
8d
=38
8c
8B-
8A
=39
8c#
8d
8A
=40
8c#
8d
8D
=41
16GG
16BB
8D
8E
=42
16AA
16C
8E
8F#
=43
16BB
16D
16G
16E
16F
16D
=44
16C
16E
16A
16B
16c
16A
=45
16d
16A
16F#
16E
16D
16C
=46
16BB
16D
16G
16BB
16AA
16F#
=47
8G
8D
8BB
=48
4GG
*>B
16d
16c
=49
16B
16c
16A
16B
16G
16A
=50
16F
16G
16E
16F
16D
16E
=51
16C
16G
16A
16B
16c
16d
=52
8e
8CC
8e
=53
16F
16A
16B
16c
16d
16c
=54
16D
16F#
16G#
16A
16B
16A
=55
16G#
16F#
16G#
16A
16B
16G#
=56
4E
8B
=57
8c
8E
8F
=58
8D
16d
16c
16B
16A
=59
8B
16GG
16AA
16BB
16C
=60
8D
8GG
8B-
=61
8B-
8D
8E
=62
8C
16c
16B-
16A
16G
=63
8A
16FF
16GG
16AA
16BB-
=64
8C
8FF
8A
=65
8F
8C#
8D
=66
8B-
8G#
8A
=67
16d
16e
8f
8G#
=68
4D
8f
=69
8e
16d
16c
16B
16A
=70
16B
16d
16c
16A
16B
16G#
=71
8A
8E
8C
=72
4AA
8c
=73
16F#
16E
8F#
8D
=74
16DD
16AA
8D
8F#
=75
16G
16F#
8G
8D
=76
16E
16F
16G
16A
16B-
16G
=77
16A
16G
16F
16E
16F
16d
=78
16c
16B
16A
16G
16c
16E
=79
16GG
16F
16E
16D
16E
16C
=80
4G
8G
=81
16F
16GG
16E
16GG
16D
16GG
=82
16E
16GG
16D
16GG
16E
16GG
=83
16F
16GG
16E
16GG
16D
16GG
=84
16E
16GG
16F#
16GG
16G
16GG
=85
16F#
16A
16D
16A
16E
16A
=86
16F#
16A
16G
16A
16E
16A
=87
16F#
16c
16D
16c
16E
16c
=88
16F#
16c
16E
16c
16D
16c
=89
16B
16D
16A
16D
16B
16D
=90
16c
16D
16B
16D
16A
16D
=91
16B
16D
16d
16D
8f
=92
4GG
8D
=93
16F
16G
8A-
8G
=94
8F
8E-
8D
=95
8B
8c
8D
=96
8B
8c
8D
=97
16F
16G
8A-
8G
=98
8F
8E-
8D
=99
8F#
8G
8D
=100
8F#
16G
16F
16E
16D
=101
16C
16E
8G
8A
=102
16D
16F
8A
8B
=103
16E
16G
16c
16A
16B-
16G
=104
16A
16F
16D
16F
16E
16D
=105
16G
16C
16BB
16AA
16GG
16FF
=106
16EE
16GG
16C
16EE
16DD
16BB
=107
8C
8E
8G
=108
4c
*>B
16d
16c
=49
16B
16c
16A
16B
16G
16A
=50
16F
16G
16E
16F
16D
16E
=51
16C
16G
16A
16B
16c
16d
=52
8e
8CC
8e
=53
16F
16A
16B
16c
16d
16c
=54
16D
16F#
16G#
16A
16B
16A
=55
16G#
16F#
16G#
16A
16B
16G#
=56
4E
8B
=57
8c
8E
8F
=58
8D
16d
16c
16B
16A
=59
8B
16GG
16AA
16BB
16C
=60
8D
8GG
8B-
=61
8B-
8D
8E
=62
8C
16c
16B-
16A
16G
=63
8A
16FF
16GG
16AA
16BB-
=64
8C
8FF
8A
=65
8F
8C#
8D
=66
8B-
8G#
8A
=67
16d
16e
8f
8G#
=68
4D
8f
=69
8e
16d
16c
16B
16A
=70
16B
16d
16c
16A
16B
16G#
=71
8A
8E
8C
=72
4AA
8c
=73
16F#
16E
8F#
8D
=74
16DD
16AA
8D
8F#
=75
16G
16F#
8G
8D
=76
16E
16F
16G
16A
16B-
16G
=77
16A
16G
16F
16E
16F
16d
=78
16c
16B
16A
16G
16c
16E
=79
16GG
16F
16E
16D
16E
16C
=80
4G
8G
=81
16F
16GG
16E
16GG
16D
16GG
=82
16E
16GG
16D
16GG
16E
16GG
=83
16F
16GG
16E
16GG
16D
16GG
=84
16E
16GG
16F#
16GG
16G
16GG
=85
16F#
16A
16D
16A
16E
16A
=86
16F#
16A
16G
16A
16E
16A
=87
16F#
16c
16D
16c
16E
16c
=88
16F#
16c
16E
16c
16D
16c
=89
16B
16D
16A
16D
16B
16D
=90
16c
16D
16B
16D
16A
16D
=91
16B
16D
16d
16D
8f
=92
4GG
8D
=93
16F
16G
8A-
8G
=94
8F
8E-
8D
=95
8B
8c
8D
=96
8B
8c
8D
=97
16F
16G
8A-
8G
=98
8F
8E-
8D
=99
8F#
8G
8D
=100
8F#
16G
16F
16E
16D
=101
16C
16E
8G
8A
=102
16D
16F
8A
8B
=103
16E
16G
16c
16A
16B-
16G
=104
16A
16F
16D
16F
16E
16D
=105
16G
16C
16BB
16AA
16GG
16FF
=106
16EE
16GG
16C
16EE
16DD
16BB
=107
8C
8E
8G
=108
4c
==
*-
